!!!!SEGMENT: pl-wtm--670-sp-3678--001-021_schulz-johann-abraham-peter--piosenki-dla-mlodocianego-wieku-piotr-maszynski-21-poranek-wiosenny.krn
!!!cenid: 18xx:4773
!!!COM: Schulz, Johann Abraham Peter
!!!COM-rismID: pe125498
!!!CDT: 1747/03/31-1800/06/10
!!!CNT: German
!!!GTL: Piosenki dla młodocianego wieku (Piotr Maszyński)
!!!OTL: 21. Poranek wiosenny
!!!OMV: 021
!!!PDT: 1871
!!!AGN: Secular; Song; Children
!!!YEC: Copyright 2022 Narodowy Instytut Fryderyka Chopina (https://polishscores.org)
!!!YEM: License CC-BY-4.0 (https://creativecommons.org/licenses/by/4.0)
!!!SMS-siglum: PL-Wtm
!!!SMS-shelfmark: 670 śp 3678
!!!SMS-variant:
!!!SMS-altvar:
!!!SMS-shelfwork: 001-021 G
!!!NIFC-rismSourceID: 1001185478
!!!NIFC-rismChildID: 1001185478
!!!NIFC-islandoraID: pl-wtm:57754
!!!URL-pdf-islandora: https://repozytorium.nifc.pl/islandora/object/pl-wtm%3A57754/datastream/PDF/view
!!!URL-scan: https://polish.musicsources.pl/pl/lokalizacje/galeria/druki-muzyczne/19483/14 @EN{Scan on Polish Music Sources Website} @PL{Skany w portalu Dziedzictwo Muzyki Polskiej w otwartym dostępie}
!!!IIIF:
!!!ONB-nifc:
!!!AIN: 1 canto 1 piano
!!!key: F
**kern	**kern	**fing	**dynam	**kern	**text	**text	**text	**dynam
*part2	*part2	*	*part2	*part1	*part1	*part1	*part1	*part1
*staff3	*staff2	*	*staff2/3	*staff1	*staff1	*staff1	*staff1	*
*IGacmp	*IGacmp	*	*	*	*	*	*	*
*ICklav	*ICklav	*	*	*ICvox	*	*	*	*
*Ipiano	*Ipiano	*	*	*Icanto	*	*	*	*
*I"Fortepian.	*I"Fortepian.	*	*	*I"Śpiew.	*	*	*	*
*I'	*I'	*	*	*I'	*	*	*	*
*clefF4	*clefG2	*	*	*clefG2	*	*	*	*
*k[b-]	*k[b-]	*	*	*k[b-]	*	*	*	*
*F:	*F:	*	*	*F:	*	*	*	*
*M2/4	*M2/4	*	*	*M2/4	*	*	*	*
=1	=1	=1	=1	=1	=1	=1	=1	=1
*^	*	*	*	*^	*	*	*	*
!!LO:TX:a:B:t=Allegretto con moto.
!	!	!	!	!	!	!	!	!	!	!LO:DY:a:rj
4F/	8F\	4cc 4a\	.	mf	4cc/	4a\	Kie-	Traw-	I-	mf
.	4c\	.	.	.	.	.	.	.	.	.
4ryy	.	8aL 8f'/	.	.	8a/	8f\	-dy	-ka	-leż	.
.	8c\	8ccJ 8a'/	.	.	8cc/	8a\	po-	na	to	.
=2	=2	=2	=2	=2	=2	=2	=2	=2	=2	=2
4F/	8F\	4cc 4a\	.	.	(4cc/	(4a\	-go-	łą-	dźwię-	.
.	4c\	.	.	.	.	.	.	.	.	.
4ryy	.	8aL 8f'/	.	.	8a/)	8f\)	.	.	.	.
.	8c\	8ccJ 8a'/	.	.	8cc/	8a\	-dnie	-ce	-ków,	.
=3	=3	=3	=3	=3	=3	=3	=3	=3	=3	=3
4C/	8C\	4b- 4g/	2 4	.	4b-/	4g\	dzio-	w peł-	bla-	.
.	4c\	.	.	.	.	.	.	.	.	.
4ryy	.	8gL 8e'/	1 3	.	8g/	8e\	-nek	-nej	-sku	.
.	8c\	8gJ 8e'/	.	.	8g/	8e\	za-	zie-	i	.
=4	=4	=4	=4	=4	=4	=4	=4	=4	=4	=4
4F/	8F\	4a 4f/	.	.	4a/	4f\	-świ-	-le-	wo-	.
.	4c\	.	.	.	.	.	.	.	.	.
4ryy	.	4cc 4a\	3 5	.	4cc/	4a\	-ta	-ni	-ni	.
.	8c\	.	.	.	.	.	.	.	.	.
!!LO:LB:g=original
=5	=5	=5	=5	=5	=5	=5	=5	=5	=5	=5
4F/	8F\	4cc 4a\	.	.	4cc/	4a\	wszyst-	ro-	ka-	.
.	4c\	.	.	.	.	.	.	.	.	.
4ryy	.	8aL 8f'/	.	.	8a/	8f\	-ko	-sy	-żdy	.
.	8c\	8ccJ 8a'/	.	.	8cc/	8a\	i-	per-	nam	.
=6	=6	=6	=6	=6	=6	=6	=6	=6	=6	=6
4F/	8F\	4cc 4a/	.	.	(4cc/	(4a\	-na-	-ła-	wio-	.
.	4c\	.	.	.	.	.	.	.	.	.
4ryy	.	8aL 8f'/	.	.	8a/)	8f\)	.	.	.	.
.	8c\	8ccJ 8a'/	.	.	8cc/	8a\	-czej	-mi	-sny	.
=7	=7	=7	=7	=7	=7	=7	=7	=7	=7	=7
!	!	!LO:TX:t=P:problem:fing: 1 2 (?)	!	!	!	!	!	!	!	!
4C/	8C\	4b- 4g/	2 1	.	4b-/	4g\	słoń-	z da-	ra-	.
.	4c\	.	.	.	.	.	.	.	.	.
4ryy	.	8gL 8e'/	1 3	.	8g/	8e\	-ca	-la	-nek	.
.	8c\	8gJ 8e'/	.	.	8g/	8e\	wschód	się	od-	.
=8	=8	=8	=8	=8	=8	=8	=8	=8	=8	=8
8r	4.F\	4a 4f/	.	.	4a/	4f\	wi-	mie-	-sło-	.
4c/	.	.	.	.	.	.	.	.	.	.
!	!	!	!	!	!	!	!	!	!	!LO:DY:a
.	.	8a 8f/	.	p	8a/	8f\	-ta.	-ni.	-ni!	p
8ryy	8rAA	8r	.	.	8r	8ryy	.	.	.	.
=9	=9	=9	=9	=9	=9	=9	=9	=9	=9	=9
4C/	8C\	4g 4e/	1 2	.	4g/	4e\	Kwi-	Słoń-	I-	.
.	4c\	.	.	.	.	.	.	.	.	.
4ryy	.	8gL 8e'/	.	.	8g/	8e\	-li	-ce	-le	.
.	8c\	8gJ 8e'/	.	.	8g/	8e\	pta-	ga-	to	.
=10	=10	=10	=10	=10	=10	=10	=10	=10	=10	=10
4G/	8G\	4b- 4g/	2 4	.	4b-/	4g\	-szy-	-łę-	cu-	.
.	4d\	.	.	.	.	.	.	.	.	.
!	!	!	!	!	!	!	!	!	!	!LO:HP:a
4ryy	.	4b- 4g/	.	<	4b-/	4g\	-na,	-zie	-dów	<
.	8d\	.	.	.	.	.	.	.	.	.
!!LO:LB:g=original
=11	=11	=11	=11	=11	=11	=11	=11	=11	=11	=11
4D/	8D\	4a 4f/	.	.	4a/	4f\	szu-	zło-	na	.
.	4d\	.	.	.	.	.	.	.	.	.
4ryy	.	8aL 8f'/	1 2	.	8a/	8f\	-mi	-ci	każ-	.
.	8d\	8aJ 8f'/	.	[[	8a/	8f\	rze-	u	-dym	[[
=12	=12	=12	=12	=12	=12	=12	=12	=12	=12	=12
4BB-/	8BB-\	4dd 4b- 4f/	.	.	4dd/	4b-\	-czuł-	so-	kro-	.
.	4B-\	.	.	.	.	.	.	.	.	.
4ryy	.	4dd 4b- 4f/	.	.	4dd/	4b-\	-ka,	-sny,	-ku	.
.	8B-\	.	.	.	.	.	.	.	.	.
=13	=13	=13	=13	=13	=13	=13	=13	=13	=13	=13
!	!	!	!	!	!	!	!	!	!	!LO:DY:a
4F/	8F\	4cc 4a 4f/	.	f	4cc/	4a\	wy-	u-	wi-	f
.	4c\	.	.	.	.	.	.	.	.	.
4ryy	.	8ccL 8a 8f'/	.	.	8cc/	8a\	-żej	-śmiech	-dzieć	.
.	8c\	8ccJ 8a 8f'/	.	.	8cc/	8a\	szy-	na-	się	.
=14	=14	=14	=14	=14	=14	=14	=14	=14	=14	=14
4F/	8F\	4ff 4cc 4a^\	.	.	(4ff/	[4a\	-bu-	-tu-	da-	.
.	4c\	.	.	.	.	.	.	.	.	.
4ryy	.	8ccL 8a'/	2 4	.	8cc/)	8a\]	.	.	.	.
.	8c\	8aJ 8f'/	.	.	8a/	8f\	-je	-ry	-je	.
=15	=15	=15	=15	=15	=15	=15	=15	=15	=15	=15
8r	4.C\	4b- 4g/	2 4	.	4b-/	4g\	zwin-	wi-	z Bo-	.
4c/	.	.	.	.	.	.	.	.	.	.
.	.	8gL 8e'/	1 3	.	8g/	8e\	-na	-dać	-ga	.
8ryy	8B- 8C\	8gJ 8e'/	.	.	8g/	8e\	ja-	ra-	wy-	.
*v	*v	*	*	*	*	*	*	*	*	*
=16	=16	=16	=16	=16	=16	=16	=16	=16	=16
4A 4F\	4f/	.	.	4f/	4f\	-skół-	-do-	-ro-	.
8A 8F\	8f/	.	.	8f/	8f\	-ka.	-snej.	-ku.	.
8r	8r	.	.	8r	8ryy	.	.	.	.
*	*	*	*	*v	*v	*	*	*	*
==	==	==	==	==	==	==	==	==
*-	*-	*-	*-	*-	*-	*-	*-	*-
!!!system-decoration: s1{(s2,s3)}
!!!RDF**kern: > = above
!!!RDF**kern: < = below
!!!RDF**kern: N = linked
!!!ENC: Andrzej Gręziak
!!!EED: Katarzyna Serwa
!!!END: 2025-03-26
!!!EEV: 2025-03-31
